X: 16
T: le Branle de la Fosse aux Loups [Am]
T: the Wolf Pit Branle
C: Boris Nortier
S: https://www.youtube.com/watch?v=20ZYmxHEhWc
S: https://www.youtube.com/watch?v=HXmGQm2lVdo
S: https://www.youtube.com/watch?v=Y8SzqfpaY9k
%Q: 1/4=156
V: 1
M: 6/8
L: 1/8
K: Am
  E |"Am"A2E     Ace |  "F"f2e dcA |\
[1,3 "Dm"d2A  "G"Bcd |  "C"e2d "Em"cB :|\
[2,4 "Am"cdc "Em"BEB | "Am"A3- Az :|
|:e | "F"fef "(Dm)"afe |  "G"d3  GBd |\
[1,3  "C"ede  "G"ged | "Am"cAB cd :|\
[2,4 "Am"edc "Em"dcB | "Am"A3- Az :|

%%sep 1 1 200

%%sep 1 1 500

